X:180
T:Do if you can. JJo2.180
Z:vmp.Robert Watkins 2014 www.village-music-project.org.uk
B:J.Johnson Choice Collection Vol 2 after c1750
M:6/8
L:1/8
Q:3/8=104
K:Am
E|ABc ABc|fede2d|cAE fed|cd/c/B/A/^G2E|
ABc ABc|fgag2f|efg ABc|Td3c2:|
|:g|efg e^cA|def Dfe|def dBG|cd/c/B/A/^G2E|
ABc ABc|fede2f|e^gb dcB|TB3A2:|

